X: 38615
T: Stoney Steps, The
R: reel
M: 4/4
K: Dmajor
dB|~A3B A~F3|ABde fdBA|F~A3 BAFA|EFGE FDDB|
~A3B A~F3|ABde fdBA|F~A3 BAFA|EFGE FDDe||
fedc defg|afbf afeg|fedc dBAd|BdAF ~E3e|
fedc defg|afbf afeg|~f3d efde|fgaf efdB||

